src/16/mimetypes/deb.svg

<?xml version="1.0" encoding="UTF-8" standalone="no"?>
<!-- Created with Inkscape (http://www.inkscape.org/) -->

<svg
   xmlns:dc="http://purl.org/dc/elements/1.1/"
   xmlns:cc="http://creativecommons.org/ns#"
   xmlns:rdf="http://www.w3.org/1999/02/22-rdf-syntax-ns#"
   xmlns:svg="http://www.w3.org/2000/svg"
   xmlns="http://www.w3.org/2000/svg"
   xmlns:sodipodi="http://sodipodi.sourceforge.net/DTD/sodipodi-0.dtd"
   xmlns:inkscape="http://www.inkscape.org/namespaces/inkscape"
   width="16"
   height="16"
   id="svg3387"
   version="1.1"
   inkscape:version="0.91pre2 r13516"
   viewBox="0 0 16 16"
   sodipodi:docname="deb.svg">
  <defs
     id="defs3389" />
  <sodipodi:namedview
     id="base"
     pagecolor="#ffffff"
     bordercolor="#666666"
     borderopacity="1.0"
     inkscape:pageopacity="0.0"
     inkscape:pageshadow="2"
     inkscape:zoom="31.392433"
     inkscape:cx="5.8930891"
     inkscape:cy="9.0413658"
     inkscape:current-layer="layer1"
     showgrid="true"
     inkscape:grid-bbox="true"
     inkscape:document-units="px"
     inkscape:snap-bbox="true"
     inkscape:bbox-nodes="true"
     inkscape:object-paths="true"
     inkscape:object-nodes="true"
     inkscape:snap-global="false"
     inkscape:window-width="1301"
     inkscape:window-height="744"
     inkscape:window-x="65"
     inkscape:window-y="24"
     inkscape:window-maximized="1">
    <inkscape:grid
       type="xygrid"
       id="grid3410" />
  </sodipodi:namedview>
  <metadata
     id="metadata3392">
    <rdf:RDF>
      <cc:Work
         rdf:about="">
        <dc:format>image/svg+xml</dc:format>
        <dc:type
           rdf:resource="http://purl.org/dc/dcmitype/StillImage" />
        <dc:title></dc:title>
      </cc:Work>
    </rdf:RDF>
  </metadata>
  <g
     id="layer1"
     inkscape:label="Layer 1"
     inkscape:groupmode="layer">
    <path
       inkscape:connector-curvature="0"
       style="fill:#f6970a;fill-opacity:1"
       d="m 8.9072957,0.65704348 c -0.230599,0.018679 -0.4597475,0.02777 -0.6870329,0.056594 l 0.09814,0.015649 C 8.4850309,0.66860918 8.7295996,0.69798888 8.9072957,0.65698968 Z M 7.8999883,0.76550238 C 7.5247395,0.78775868 7.0004295,0.98504788 7.1612794,0.80698418 6.5491522,1.0800537 5.4624781,1.4638075 4.8521789,2.0363904 L 4.8367783,1.9072902 C 4.5570816,2.242329 3.6144015,2.9081193 3.5401814,3.3433602 l -0.072332,0.015649 C 3.3227028,3.6049837 3.2263011,3.8858278 3.1114189,4.1390854 2.9214769,4.4632246 2.8310118,4.263804 2.8582855,4.3147397 2.4843631,5.0734492 2.3004273,5.713173 2.1402429,6.2363803 2.2546334,6.4067934 2.144216,7.2637727 2.1868415,7.9514266 1.9997114,11.347247 4.5682497,14.644866 7.3784303,15.405622 7.7898702,15.552905 8.4019529,15.546411 8.9229941,15.560615 8.3082191,15.385085 8.2307748,15.470234 7.6315489,15.260987 7.2001084,15.057582 7.1058429,14.823705 6.7998612,14.55839 L 6.918673,14.775417 C 6.3187867,14.563591 6.5699676,14.511314 6.0818237,14.356973 l 0.129145,-0.170459 c -0.1943981,-0.0151 -0.5112843,-0.327567 -0.5992356,-0.50111 l -0.2169573,0.01014 C 5.1397149,13.380501 5.0079269,13.153727 5.017669,12.977471 L 4.945337,13.096279 C 4.8680024,12.963268 4.0071132,11.917331 4.454595,12.161318 4.3719396,12.085811 4.2588306,12.037881 4.1394873,11.820387 l 0.092979,-0.108513 C 4.0175751,11.434831 3.8366499,11.081062 3.8501973,10.962867 3.9644237,11.11774 4.0453008,11.148203 4.1239871,11.174642 3.5802973,9.8258231 3.549258,11.100323 3.1373214,9.8005961 l 0.087822,-0.0057 C 3.1585392,9.6941791 3.1185577,9.5818795 3.065004,9.4747526 L 3.101121,9.0976856 C 2.7096813,8.6457181 2.9926021,7.1773166 3.049375,6.3701305 3.0882239,6.0421411 3.3735839,5.6894663 3.5917831,5.1406646 L 3.4574814,5.120197 C 3.7118865,4.6759889 4.91621,3.3367429 5.4721208,3.4052202 5.7414097,3.067459 5.4165649,3.3996065 5.3636421,3.3173683 5.955108,2.7058718 6.1423922,2.8853862 6.5414371,2.7749502 6.971561,2.5198694 6.1721447,2.8730211 6.3761358,2.6767899 7.1200014,2.4868727 6.9030392,2.2460796 7.87421,2.1498468 c 0.041879,0.023448 0.00248,0.047543 -0.056912,0.067245 0.6840474,-0.1845021 1.8046871,-0.087912 2.567385,0.2634467 1.011148,0.4727434 2.150158,1.8726175 2.195446,3.1872925 l 0.0465,0.015649 c -0.02504,0.5223577 0.07951,1.1234761 -0.103317,1.6789099 l 0.118816,-0.2531432 c 0.01207,0.3916379 -0.114713,0.5849877 -0.232461,0.9246615 L 12.197873,8.13724 c -0.174402,0.3390034 0.01605,0.2156256 -0.108484,0.4855706 -0.272586,0.2421846 -0.829779,0.7581139 -1.007326,0.8058551 -0.129269,-0.00556 0.09038,-0.1536013 0.118817,-0.2117708 -0.364826,0.25056 -0.294457,0.3796407 -0.852355,0.53206 l -0.0154,-0.03622 C 8.9564728,10.360412 7.0437345,9.0729505 7.0683751,7.3210623 7.054167,7.4320993 7.0263966,7.4055311 6.9960478,7.4501526 6.9249127,6.5493915 7.4087792,5.6453317 8.2306656,5.2753688 9.0340462,4.8781917 9.9799889,5.0384256 10.555265,5.5749915 10.239526,5.1610777 9.606739,4.7233031 8.8608858,4.7639602 8.1305775,4.7754857 7.4467935,5.2411052 7.2181766,5.7454643 6.8444281,5.9803606 6.8022756,6.6553117 6.6396123,6.7785649 6.4200866,8.3916652 7.0523388,9.0840186 8.1221768,9.9038531 8.2901261,10.016992 8.1720148,10.034459 8.1945085,10.12087 7.8394348,9.9548541 7.5113064,9.7057391 7.2440095,9.3976221 7.3859965,9.6049411 7.5417297,9.8070251 7.7399233,9.9658671 7.4048497,9.8527881 6.9560117,9.1523077 6.8255799,9.1238262 7.4028227,10.158319 9.1703002,10.941475 10.095502,10.554774 9.6680373,10.569884 9.1198018,10.561174 8.6387669,10.384307 8.436763,10.280379 8.1660682,10.067879 8.2151657,10.027837 9.476938,10.498653 10.780028,10.381054 11.872524,9.506135 12.150244,9.2898985 12.451133,8.9223442 12.538905,8.9172274 12.423631,9.0906508 12.527085,9.0335004 12.487165,9.1341846 12.694121,8.7685533 12.358814,8.977627 12.74546,8.4161819 l 0.149801,0.2065943 c -0.05556,-0.3707431 0.460343,-0.8187416 0.408106,-1.4050558 0.05913,-0.089482 0.09573,-0.039842 0.09814,0.082616 -0.0064,-0.109656 -0.02002,-0.2173249 0,-0.3874252 0.04779,0.1265072 0.111747,0.2642168 0.144639,0.3977832 -0.113054,-0.4415005 0.112955,-0.7452913 0.170478,-1.0021655 -0.05628,-0.02474 -0.174353,0.1955805 -0.201468,-0.3254557 0.004,-0.2266546 0.06517,-0.1200787 0.08782,-0.1756495 -0.04397,-0.02474 -0.16154,-0.1982879 -0.232461,-0.5320598 0.05103,-0.078135 0.136372,0.2052082 0.206628,0.2169522 -0.04441,-0.2648278 -0.120839,-0.468178 -0.123978,-0.6715183 -0.204801,-0.428127 -0.0717,0.054125 -0.237635,-0.1860074 -0.217533,-0.680063 0.17953,-0.1562547 0.20664,-0.464919 0.329947,0.4785906 0.517946,1.2217657 0.604392,1.5291035 C 13.960752,5.3245606 13.852204,4.9600772 13.721777,4.6089622 13.82262,4.6504442 13.559168,3.8379671 13.850922,4.3765399 13.539163,3.2291336 12.519406,2.1571843 11.577988,1.6541566 c 0.114231,0.1051302 0.25887,0.236938 0.206633,0.2583099 -0.468143,-0.278246 -0.3873,-0.3008896 -0.454586,-0.4184246 -0.380867,-0.1550625 -0.40364,0.012072 -0.656053,0 C 9.9552498,1.1130055 9.8169734,1.1543085 9.1552575,0.91548758 l 0.03095,0.13946832 c -0.4759029,-0.15818732 -0.5545446,0.059615 -1.0693065,0 -0.03095,-0.023448 0.1641087,-0.0853879 0.3254456,-0.10850852 -0.4597079,0.0608021 -0.4377301,-0.090932 -0.8885155,0.015649 0.1105801,-0.0775536 0.2280654,-0.130069 0.3462613,-0.1965492 z M 13.401518,7.3002021 c 0.0035,0.1221255 -0.03005,0.3157784 -0.09299,0.5217666 0.09571,-0.2509128 0.101057,-0.3883144 0.09299,-0.5217666 z M 8.2719039,0.84816778 c 0.1317531,0.022803 0.2802827,0.040936 0.258295,0.072332 0.143989,-0.031894 0.1814269,-0.059619 -0.258295,-0.072332 z m 0.258295,0.072332 -0.087812,0.020468 0.082655,-0.010135 0.00542,-0.010333 z M 7.7811616,2.2274098 c -0.082671,0.02474 -0.1846412,0.049991 -0.2272905,0.087852 0.067584,-0.033136 0.1440935,-0.063544 0.2272905,-0.087862 z M 2.4552661,3.849542 c 0.038252,0.3556807 -0.2674259,0.4931619 0.06716,0.2582606 0.1800162,-0.405672 -0.069635,-0.111047 -0.06716,-0.2582651 z M 2.1814863,4.9808579 C 1.9677483,5.2539224 2.0851591,5.3114405 2.0626646,5.4973783 2.1400342,5.260316 2.1517287,5.1183142 2.1814863,4.9808529 Z m 8.8024417,1.6478508 c -0.03036,0 -0.0682,0.080738 -0.08781,0.1652813 0.04505,0.024193 0.07952,0.3131256 0.123989,0.1342818 0.01486,-0.2221387 -0.006,-0.3004226 -0.03616,-0.299573 z m 2.701688,0.7489973 -0.03616,0.092979 c -0.06581,0.4721523 -0.208403,0.9402057 -0.428753,1.3740464 0.242835,-0.4571595 0.398975,-0.9600829 0.464919,-1.4670303 z m -2.861822,0.1704828 c -0.03294,0.1633538 -0.122657,0.3055246 -0.206629,0.4546206 -0.461701,0.2905365 -0.04332,-0.1750432 0,-0.3512986 -0.495915,0.6250289 -0.06454,0.3724916 -0.08265,0.5475995 C 10.681644,7.9962369 10.786451,7.778142 10.8238,7.5481837 Z M 9.8164766,8.4986783 C 9.6162963,8.5481073 9.4128868,8.5481073 9.2069185,8.5299733 8.9602832,8.5355433 9.2514305,8.656008 9.573677,8.7056224 9.662948,8.6360044 9.7448997,8.5674354 9.8164766,8.4989635 Z M 6.701517,8.5348941 c 0.05413,0.2001508 0.1646505,0.3674838 0.2686282,0.5423436 L 6.8926513,8.8551092 C 6.806697,8.7602078 6.7590501,8.6483307 6.701517,8.5348297 Z M 6.5103878,8.8706484 6.474271,9.041116 C 6.6362736,9.2613176 6.7680416,9.5041025 6.9753364,9.6765081 6.8269163,9.3858376 6.7144285,9.2644426 6.5104474,8.8705837 Z"
       id="path2820" />
  </g>
</svg>

<svg xmlns="http://www.w3.org/2000/svg" width="16" height="16"><path d="M8.907.657c-.23.019-.46.028-.687.057l.098.015c.167-.06.412-.031.59-.072zM7.9.766c-.375.022-.9.219-.739.041-.612.273-1.699.657-2.309 1.23l-.015-.13c-.28.335-1.223 1.001-1.297 1.436l-.072.016c-.145.246-.242.527-.357.78-.19.324-.28.125-.253.176-.374.758-.558 1.398-.718 1.921.115.17.004 1.028.047 1.715-.187 3.396 2.381 6.694 5.191 7.455.412.147 1.024.14 1.545.155-.615-.176-.692-.09-1.291-.3-.432-.203-.526-.437-.832-.703l.119.217c-.6-.211-.349-.264-.837-.418l.129-.17c-.194-.016-.511-.328-.6-.502l-.216.01c-.255-.314-.387-.541-.377-.718l-.073.12c-.077-.134-.938-1.18-.49-.936-.083-.075-.196-.123-.316-.34l.093-.11c-.214-.276-.395-.63-.382-.748.114.155.195.185.274.212-.544-1.35-.575-.075-.987-1.374l.088-.006c-.066-.1-.106-.213-.16-.32l.036-.377c-.391-.452-.108-1.92-.052-2.728.04-.328.325-.68.543-1.23l-.135-.02c.255-.444 1.46-1.783 2.015-1.715.27-.338-.055-.005-.108-.088.591-.611.778-.432 1.177-.542.43-.255-.369.098-.165-.098.744-.19.527-.43 1.498-.527.042.023.003.047-.057.067.684-.184 1.805-.088 2.568.264 1.01.472 2.15 1.872 2.195 3.187l.047.015c-.025.523.08 1.124-.104 1.68l.12-.254c.011.392-.116.585-.233.925l-.212.103c-.175.34.016.216-.109.486-.272.242-.83.758-1.007.806-.13-.006.09-.154.119-.212-.365.25-.295.38-.852.532l-.016-.036c-1.377.647-3.29-.64-3.265-2.392-.014.111-.042.085-.072.13-.071-.902.413-1.806 1.235-2.176.803-.397 1.749-.237 2.324.3-.315-.414-.948-.852-1.694-.811-.73.011-1.414.477-1.643.981-.374.235-.416.91-.578 1.034-.22 1.613.412 2.305 1.482 3.125.168.113.05.13.073.217a2.891 2.891 0 0 1-.951-.723c.142.207.298.409.496.568-.335-.113-.784-.814-.914-.842.577 1.034 2.344 1.817 3.27 1.43-.428.016-.976.007-1.457-.17-.202-.104-.473-.316-.424-.356 1.262.47 2.565.353 3.658-.522.277-.216.578-.584.666-.589-.115.174-.012.117-.052.217.207-.365-.128-.156.258-.718l.15.207c-.055-.371.46-.819.408-1.405.06-.09.096-.04.099.082-.007-.11-.02-.217 0-.387.047.126.111.264.144.398-.113-.442.113-.746.17-1.002-.056-.025-.174.195-.2-.326.003-.227.064-.12.087-.176-.044-.024-.162-.198-.232-.532.05-.078.136.206.206.217-.044-.265-.12-.468-.124-.671-.205-.428-.072.054-.237-.186-.218-.68.18-.156.206-.465.33.478.518 1.222.605 1.529a6.246 6.246 0 0 0-.305-1.09c.1.041-.163-.771.129-.232-.312-1.148-1.332-2.22-2.273-2.723.114.105.259.237.207.258-.469-.278-.388-.3-.455-.418-.38-.155-.404.012-.656 0-.719-.381-.857-.34-1.519-.579l.031.14c-.476-.158-.554.06-1.07 0-.03-.023.165-.085.326-.109-.46.061-.437-.09-.888.016.11-.077.228-.13.346-.196zM13.402 7.3c.003.122-.03.316-.093.522.095-.25.1-.388.093-.522zM8.272.848c.132.023.28.041.258.072.144-.031.182-.06-.258-.072zM8.53.92l-.088.021.083-.01.005-.01zm-.749 1.307c-.083.025-.184.05-.227.088a1.43 1.43 0 0 1 .227-.088zM2.455 3.85c.039.355-.267.493.067.258.18-.406-.07-.111-.067-.258zm-.274 1.13c-.213.274-.096.331-.118.517.077-.237.089-.379.118-.516zm8.803 1.649c-.03 0-.068.08-.088.165.045.024.08.313.124.134.015-.222-.006-.3-.036-.3zm2.702.749l-.037.093c-.065.472-.208.94-.428 1.374.243-.457.399-.96.465-1.467zm-2.862.17c-.033.164-.123.306-.207.455-.462.29-.043-.175 0-.351-.496.625-.064.372-.082.547a1.54 1.54 0 0 0 .289-.65zm-1.008.95c-.2.05-.403.05-.61.032-.246.006.045.126.368.176.089-.07.17-.139.242-.207zm-3.114.037c.054.2.164.367.268.542l-.077-.222c-.086-.095-.134-.207-.191-.32zm-.192.336l-.036.17c.162.22.294.463.501.636-.148-.291-.26-.413-.465-.806z" fill="#f6970a"/></svg>
